img/i_nav_request_on.svg

<svg width="24" height="24" viewBox="0 0 24 24" fill="none" xmlns="http://www.w3.org/2000/svg">
<path d="M13.2575 6.58334H7.14668C6.91656 6.58334 6.73001 6.76988 6.73001 7V7.83334C6.73001 8.06345 6.91656 8.25 7.14668 8.25H13.2575C13.4876 8.25 13.6742 8.06345 13.6742 7.83334V7C13.6742 6.76988 13.4876 6.58334 13.2575 6.58334Z" fill="#00B28F"/>
<path d="M11.7133 9.95583H7.14668C6.91656 9.95583 6.73001 10.1424 6.73001 10.3725V11.2058C6.73001 11.436 6.91656 11.6225 7.14668 11.6225H11.7133C11.9435 11.6225 12.13 11.436 12.13 11.2058V10.3725C12.13 10.1424 11.9435 9.95583 11.7133 9.95583Z" fill="#00B28F"/>
<path d="M10.6675 13.8883H7.14668C6.91656 13.8883 6.73001 14.0749 6.73001 14.305V15.1383C6.73001 15.3684 6.91656 15.555 7.14668 15.555H10.6675C10.8976 15.555 11.0842 15.3684 11.0842 15.1383V14.305C11.0842 14.0749 10.8976 13.8883 10.6675 13.8883Z" fill="#00B28F"/>
<path d="M18.2334 2.68H5.73341C5.06549 2.68066 4.42511 2.94628 3.95281 3.41858C3.48052 3.89087 3.21485 4.53124 3.21419 5.19916V20.4867C3.21417 20.6375 3.25507 20.7856 3.3326 20.915C3.41012 21.0444 3.52133 21.1504 3.65435 21.2216C3.78738 21.2927 3.93732 21.3265 4.08801 21.3191C4.2387 21.3118 4.38457 21.2637 4.51007 21.18L7.16418 19.4108L9.81839 21.18C9.95525 21.2712 10.116 21.3198 10.2804 21.3198C10.4449 21.3198 10.6057 21.2712 10.7426 21.18L13.3975 19.4108L16.0517 21.18C16.1887 21.2713 16.3495 21.32 16.5142 21.32C16.7352 21.32 16.9472 21.2322 17.1034 21.0759C17.2597 20.9196 17.3475 20.7077 17.3475 20.4867V11.61H19.955C20.176 11.61 20.388 11.5222 20.5443 11.3659C20.7006 11.2096 20.7883 10.9977 20.7883 10.7767V5.23C20.7864 4.55344 20.5164 3.90523 20.0375 3.4273C19.5586 2.94937 18.91 2.68066 18.2334 2.68ZM15.68 18.93L13.8584 17.7167C13.7216 17.6255 13.5607 17.5768 13.3963 17.5768C13.2318 17.5768 13.0711 17.6255 12.9342 17.7167L10.2792 19.4858L7.62591 17.7167C7.48906 17.6255 7.32823 17.5768 7.16377 17.5768C6.99932 17.5768 6.83859 17.6255 6.70174 17.7167L4.88004 18.93V5.19916C4.88026 4.97313 4.97015 4.75643 5.12998 4.59661C5.28981 4.43678 5.50647 4.34689 5.7325 4.34667H15.8484C15.7397 4.63002 15.6833 4.9307 15.6817 5.23417V18.9292L15.68 18.93ZM19.1209 9.94833H17.3484V5.235C17.3448 5.11621 17.365 4.99792 17.4079 4.88711C17.4509 4.7763 17.5156 4.67525 17.5983 4.58994C17.6811 4.50463 17.7801 4.4368 17.8896 4.39049C17.999 4.34417 18.1166 4.32031 18.2354 4.32031C18.3543 4.32031 18.4719 4.34417 18.5813 4.39049C18.6908 4.4368 18.7898 4.50463 18.8726 4.58994C18.9553 4.67525 19.02 4.7763 19.063 4.88711C19.1059 4.99792 19.1261 5.11621 19.1225 5.235L19.1209 9.94833Z" fill="#00B28F"/>
</svg>

<svg xmlns="http://www.w3.org/2000/svg" width="24" height="24" fill="#00b28f" xmlns:v="https://vecta.io/nano"><path d="M13.258 6.583H7.147c-.23 0-.417.187-.417.417v.833c0 .23.187.417.417.417h6.111c.23 0 .417-.187.417-.417V7c0-.23-.187-.417-.417-.417zm-1.545 3.373H7.147c-.23 0-.417.187-.417.417v.833c0 .23.187.417.417.417h4.567c.23 0 .417-.187.417-.417v-.833c0-.23-.187-.417-.417-.417zm-1.045 3.932H7.147c-.23 0-.417.187-.417.417v.833c0 .23.187.417.417.417h3.521c.23 0 .417-.187.417-.417v-.833c0-.23-.187-.417-.417-.417zM18.233 2.68h-12.5a2.52 2.52 0 0 0-2.519 2.519v15.288c0 .151.041.299.118.428a.84.84 0 0 0 .322.307.83.83 0 0 0 .434.098c.151-.007.297-.055.422-.139l2.654-1.769 2.654 1.769c.137.091.298.14.462.14s.325-.049.462-.14l2.655-1.769 2.654 1.769c.137.091.298.14.462.14.221 0 .433-.088.589-.244s.244-.368.244-.589V11.61h2.607c.221 0 .433-.088.589-.244s.244-.368.244-.589V5.23c-.002-.677-.272-1.325-.751-1.803s-1.128-.747-1.804-.747zM15.68 18.93l-1.822-1.213c-.137-.091-.298-.14-.462-.14s-.325.049-.462.14l-2.655 1.769-2.653-1.769c-.137-.091-.298-.14-.462-.14s-.325.049-.462.14L4.88 18.93V5.199c0-.226.09-.443.25-.603a.85.85 0 0 1 .603-.25h10.116c-.109.283-.165.584-.167.888v13.695l-.002.001zm3.441-8.982h-1.772V5.235a.89.89 0 0 1 .541-.844.89.89 0 0 1 .692 0 .89.89 0 0 1 .541.845l-.002 4.713z"/></svg>
